X:8569
T:Killavil Fancy
R:Reel
B:Bulmer and Sharpley
D:The Barra MacNeils - Traditional Album
A:Ireland
D:Pierre Schreyer - New Canadian Waltz
M:C|
L:1/8
K:G
DGBG A2 BA| GE ~E2 cEGE | DGBG A2 BA| GEED EFGA |
~B3 d A2 BA | GE ~E2 cEdE | DGBG AGAB | GEED EFGA ||
GABd edge | dB ~B2 dBAB | GABd edge | dBAG EGGA |
GABd edge | dB ~B2 dega | bgag egde | gedB AGEG ||
